build/images/header/whatsApp.svg

<svg width="29" height="29" viewBox="0 0 29 29" fill="none" xmlns="http://www.w3.org/2000/svg">
<path d="M14.5036 0.00012207H14.4964C6.50144 0.00012207 0 6.50337 0 14.5001C0 17.672 1.02225 20.6119 2.76044 22.9989L0.953375 28.3857L6.52681 26.604C8.81962 28.1229 11.5547 29.0001 14.5036 29.0001C22.4986 29.0001 29 22.4951 29 14.5001C29 6.50519 22.4986 0.00012207 14.5036 0.00012207ZM22.9408 20.4759C22.591 21.4637 21.2026 22.283 20.0952 22.5222C19.3376 22.6836 18.3479 22.8122 15.0166 21.4311C10.7554 19.6657 8.01125 15.3357 7.79738 15.0547C7.59256 14.7738 6.0755 12.7619 6.0755 10.6812C6.0755 8.60044 7.13219 7.58725 7.55813 7.15225C7.90794 6.79518 8.48612 6.63206 9.04075 6.63206C9.22019 6.63206 9.3815 6.64112 9.5265 6.64837C9.95244 6.6665 10.1663 6.69187 10.4473 7.36431C10.7971 8.20712 11.6489 10.2879 11.7504 10.5017C11.8537 10.7156 11.9571 11.0056 11.8121 11.2866C11.6761 11.5766 11.5565 11.7052 11.3426 11.9517C11.1287 12.1982 10.9257 12.3867 10.7119 12.6514C10.5161 12.8816 10.295 13.1281 10.5415 13.554C10.788 13.9709 11.6399 15.3611 12.8941 16.4776C14.5127 17.9185 15.8249 18.3789 16.2944 18.5746C16.6442 18.7196 17.0611 18.6852 17.3166 18.4133C17.6411 18.0635 18.0416 17.4835 18.4494 16.9126C18.7394 16.5029 19.1056 16.4522 19.4898 16.5972C19.8813 16.7331 21.953 17.7572 22.3789 17.9692C22.8049 18.1831 23.0858 18.2846 23.1891 18.4641C23.2906 18.6435 23.2906 19.4863 22.9408 20.4759Z" fill="#BEBEBE"/>
</svg>

<svg width="29" height="29" fill="none" xmlns="http://www.w3.org/2000/svg"><path d="M14.504 0h-.008C6.501 0 0 6.503 0 14.5c0 3.172 1.022 6.112 2.76 8.5L.953 28.386l5.574-1.782A14.374 14.374 0 0014.504 29C22.499 29 29 22.495 29 14.5S22.499 0 14.504 0zm8.437 20.476c-.35.988-1.738 1.807-2.846 2.046-.757.162-1.747.29-5.078-1.09-4.262-1.766-7.006-6.096-7.22-6.377-.204-.281-1.721-2.293-1.721-4.374 0-2.08 1.056-3.094 1.482-3.529.35-.357.928-.52 1.483-.52.18 0 .34.01.486.016.425.019.64.044.92.716.35.843 1.202 2.924 1.303 3.138.104.214.207.504.062.785-.136.29-.255.418-.47.665-.213.246-.416.435-.63.7-.196.23-.417.476-.17.902.246.417 1.098 1.807 2.352 2.924 1.619 1.44 2.93 1.9 3.4 2.097.35.145.767.11 1.023-.162.324-.35.725-.93 1.132-1.5.29-.41.657-.46 1.04-.316.392.136 2.464 1.16 2.89 1.372.426.214.707.316.81.495.102.18.102 1.022-.248 2.012z" fill="#BEBEBE"/></svg>
